images_elementary_svg/cmd/ko/lc_italic.svg

<svg height="24" width="24" xmlns="http://www.w3.org/2000/svg" xmlns:xlink="http://www.w3.org/1999/xlink"><radialGradient id="a" cx="13" cy="7.158687" gradientTransform="matrix(-2.8900222 .00000025 -.00000038 -4.4461878 43.983741 35.286487)" gradientUnits="userSpaceOnUse" r="4.498236"><stop offset="0" stop-color="#737373"/><stop offset=".26238" stop-color="#636363"/><stop offset=".704952" stop-color="#4b4b4b"/><stop offset="1" stop-color="#3f3f3f"/></radialGradient><linearGradient id="b" gradientUnits="userSpaceOnUse" x1="15.40625" x2="15.40625" y1="44" y2="41"><stop offset="0" stop-opacity="0"/><stop offset=".5"/><stop offset="1" stop-opacity="0"/></linearGradient><radialGradient id="c" cx="40" cy="43.5" gradientTransform="matrix(1 0 0 .75 -32.056528 9.875)" gradientUnits="userSpaceOnUse" r="2" xlink:href="#e"/><radialGradient id="d" cx="9" cy="43.5" gradientTransform="matrix(1 0 0 .75 -5.1875 9.875)" gradientUnits="userSpaceOnUse" r="2" xlink:href="#e"/><linearGradient id="e"><stop offset="0"/><stop offset="1" stop-opacity="0"/></linearGradient><g transform="matrix(.60518445 0 0 1 .192734 -26)"><path d="m7.9434724 41v3h.5c.831 0 1.5-.669 1.5-1.5s-.669-1.5-1.5-1.5z" fill="url(#c)" opacity=".2"/><path d="m3.21875 41c-.7790625 0-1.40625.627187-1.40625 1.40625v.1875c0 .779063.6271875 1.40625 1.40625 1.40625h.59375v-3z" fill="url(#d)" opacity=".2"/><path d="m3.8125 41h4.1309718v3h-4.1309718z" fill="url(#b)" opacity=".2"/></g><g transform="matrix(.60518445 0 0 1 12.692734 -21.5)"><path d="m7.9434724 41v3h.5c.831 0 1.5-.669 1.5-1.5s-.669-1.5-1.5-1.5z" fill="url(#c)" opacity=".2"/><path d="m3.21875 41c-.7790625 0-1.40625.627187-1.40625 1.40625v.1875c0 .779063.6271875 1.40625 1.40625 1.40625h.59375v-3z" fill="url(#d)" opacity=".2"/><path d="m3.8125 41h4.1309718v3h-4.1309718z" fill="url(#b)" opacity=".2"/></g><g fill="url(#a)" stroke="#000" stroke-opacity=".6"><path d="m5.6438118 4.6851645-.2913894 1.4793613h7.5537086c-1.344874 4.7743022-4.6633469 6.5127912-10.5807924 9.0904662l.6948516 1.501776c7.3295628-3.272527 10.8721818-6.266231 12.0377398-12.0716035zm13.9194452-2.1742129-3.901252 17.9890484h1.837995l3.901252-17.9890484z" fill="url(#a)" stroke="#000" stroke-opacity=".6"/><path d="m19.5625 2.5117188-3.900391 17.9882812h.326172l3.574219-16.4882812h1.511719l.326172-1.5zm-13.9179688 2.1738281-.2929687 1.4785156h7.5546875c-.002123.0075377-.005679.0139618-.007812.0214844h1.77539c.145235-.4810757.279413-.9752639.384766-1.5zm6.7265628 2.9785156c-1.595139 3.6724205-4.7945982 5.3047245-10.0449221 7.5917965l.5742187 1.244141c5.5439507-2.43841 8.7069974-4.224976 10.0058594-8.8359375z" fill="#fff" opacity=".2" stroke="none"/></g></svg>

<?xml version="1.0" encoding="UTF-8" standalone="no"?>
<svg
   xmlns:dc="http://purl.org/dc/elements/1.1/"
   xmlns:cc="http://creativecommons.org/ns#"
   xmlns:rdf="http://www.w3.org/1999/02/22-rdf-syntax-ns#"
   xmlns:svg="http://www.w3.org/2000/svg"
   xmlns="http://www.w3.org/2000/svg"
   xmlns:xlink="http://www.w3.org/1999/xlink"
   xmlns:sodipodi="http://sodipodi.sourceforge.net/DTD/sodipodi-0.dtd"
   xmlns:inkscape="http://www.inkscape.org/namespaces/inkscape"
   height="24"
   width="24"
   version="1.1"
   id="svg39"
   sodipodi:docname="lc_italic.svg"
   inkscape:version="0.92.4 (unknown)"
   inkscape:export-filename="/home/rizmut/Dokumen/Rizmut/Github/libreoffice-style-elementary/images_elementary/cmd/ko/lc_italic.png"
   inkscape:export-xdpi="96"
   inkscape:export-ydpi="96">
  <metadata
     id="metadata45">
    <rdf:RDF>
      <cc:Work
         rdf:about="">
        <dc:format>image/svg+xml</dc:format>
        <dc:type
           rdf:resource="http://purl.org/dc/dcmitype/StillImage" />
        <dc:title></dc:title>
      </cc:Work>
    </rdf:RDF>
  </metadata>
  <defs
     id="defs43">
    <radialGradient
       inkscape:collect="always"
       xlink:href="#e"
       id="radialGradient901"
       cx="13"
       cy="7.1586866"
       fx="13"
       fy="7.1586866"
       r="4.4982357"
       gradientTransform="matrix(-2.8900222,2.4709558e-7,-3.8014694e-7,-4.4461878,43.983741,35.286487)"
       gradientUnits="userSpaceOnUse" />
    <linearGradient
       inkscape:collect="always"
       xlink:href="#d"
       id="linearGradient926"
       gradientUnits="userSpaceOnUse"
       x1="16"
       y1="44"
       x2="16"
       y2="41"
       gradientTransform="translate(-0.59375003)" />
    <radialGradient
       inkscape:collect="always"
       xlink:href="#b"
       id="radialGradient1111"
       gradientUnits="userSpaceOnUse"
       gradientTransform="matrix(1,0,0,0.75,-32.056528,9.875)"
       cx="40"
       cy="43.5"
       r="2" />
    <radialGradient
       inkscape:collect="always"
       xlink:href="#b"
       id="radialGradient1113"
       gradientUnits="userSpaceOnUse"
       gradientTransform="matrix(1,0,0,0.75,-5.1875,9.875)"
       cx="9"
       cy="43.5"
       r="2" />
    <linearGradient
       inkscape:collect="always"
       xlink:href="#d"
       id="linearGradient1115"
       gradientUnits="userSpaceOnUse"
       gradientTransform="translate(-0.59375003)"
       x1="16"
       y1="44"
       x2="16"
       y2="41" />
  </defs>
  <sodipodi:namedview
     pagecolor="#ffffff"
     bordercolor="#666666"
     borderopacity="1"
     objecttolerance="10"
     gridtolerance="10"
     guidetolerance="10"
     inkscape:pageopacity="0"
     inkscape:pageshadow="2"
     inkscape:window-width="1366"
     inkscape:window-height="714"
     id="namedview41"
     showgrid="true"
     inkscape:zoom="13.906433"
     inkscape:cx="14.308216"
     inkscape:cy="5.5226225"
     inkscape:window-x="0"
     inkscape:window-y="28"
     inkscape:window-maximized="1"
     inkscape:current-layer="svg39"
     showguides="false">
    <inkscape:grid
       type="xygrid"
       id="grid852" />
    <sodipodi:guide
       position="-4.5,13"
       orientation="-0.70710678,0.70710678"
       id="guide1012"
       inkscape:locked="false" />
  </sodipodi:namedview>
  <radialGradient
     id="a"
     cx="40"
     cy="43.5"
     gradientTransform="matrix(1,0,0,0.75,-32.056528,9.875)"
     gradientUnits="userSpaceOnUse"
     r="2"
     xlink:href="#b" />
  <linearGradient
     id="b">
    <stop
       offset="0"
       id="stop3" />
    <stop
       offset="1"
       stop-opacity="0"
       id="stop5" />
  </linearGradient>
  <radialGradient
     id="c"
     cx="9"
     cy="43.5"
     gradientTransform="matrix(1,0,0,0.75,-5.1875,9.875)"
     gradientUnits="userSpaceOnUse"
     r="2"
     xlink:href="#b" />
  <linearGradient
     id="d"
     gradientUnits="userSpaceOnUse"
     x1="16"
     x2="16"
     y1="44"
     y2="41">
    <stop
       offset="0"
       stop-opacity="0"
       id="stop9" />
    <stop
       offset=".5"
       id="stop11" />
    <stop
       offset="1"
       stop-opacity="0"
       id="stop13" />
  </linearGradient>
  <radialGradient
     id="e"
     cx="12.279661"
     cy="7.140932"
     gradientTransform="matrix(-3.1675784 .07135103 -.0749702 -3.3513607 51.71176 26.522026)"
     gradientUnits="userSpaceOnUse"
     r="5.015671">
    <stop
       offset="0"
       stop-color="#737373"
       id="stop16" />
    <stop
       offset=".26238"
       stop-color="#636363"
       id="stop18" />
    <stop
       offset=".704952"
       stop-color="#4b4b4b"
       id="stop20" />
    <stop
       offset="1"
       stop-color="#3f3f3f"
       id="stop22" />
  </radialGradient>
  <g
     id="g1109"
     transform="matrix(0.60518445,0,0,1,0.19273439,-26)">
    <path
       inkscape:connector-curvature="0"
       style="opacity:0.2;fill:url(#radialGradient1111)"
       id="path1103"
       d="m 7.9434724,41 v 3 h 0.5 c 0.831,0 1.5,-0.669 1.5,-1.5 0,-0.831 -0.669,-1.5 -1.5,-1.5 z" />
    <path
       inkscape:connector-curvature="0"
       style="opacity:0.2;fill:url(#radialGradient1113)"
       id="path1105"
       d="M 3.21875,41 C 2.4396875,41 1.8125,41.627187 1.8125,42.40625 v 0.1875 C 1.8125,43.372813 2.4396875,44 3.21875,44 H 3.8125 v -3 z" />
    <path
       sodipodi:nodetypes="ccccc"
       inkscape:connector-curvature="0"
       style="opacity:0.2;fill:url(#linearGradient1115)"
       id="path1107"
       d="m 3.8125,41 h 4.1309718 v 3 H 3.8125 Z" />
  </g>
  <g
     transform="matrix(0.60518445,0,0,1,12.692734,-21.5)"
     id="g31">
    <path
       d="m 7.9434724,41 v 3 h 0.5 c 0.831,0 1.5,-0.669 1.5,-1.5 0,-0.831 -0.669,-1.5 -1.5,-1.5 z"
       id="path25"
       style="opacity:0.2;fill:url(#a)"
       inkscape:connector-curvature="0" />
    <path
       d="M 3.21875,41 C 2.4396875,41 1.8125,41.627187 1.8125,42.40625 v 0.1875 C 1.8125,43.372813 2.4396875,44 3.21875,44 H 3.8125 v -3 z"
       id="path27"
       style="opacity:0.2;fill:url(#c)"
       inkscape:connector-curvature="0" />
    <path
       d="m 3.8125,41 h 4.1309718 v 3 H 3.8125 Z"
       id="path29"
       style="opacity:0.2;fill:url(#linearGradient926)"
       inkscape:connector-curvature="0"
       sodipodi:nodetypes="ccccc" />
  </g>
  <g
     aria-label="기"
     style="font-style:normal;font-weight:normal;font-size:40px;line-height:1.25;font-family:sans-serif;letter-spacing:0px;word-spacing:0px;fill:url(#radialGradient901);fill-opacity:1;stroke:#000000;stroke-opacity:0.6"
     id="text856">
    <path
       d="M 5.6438118,4.6851645 5.3524224,6.1645258 H 12.906131 C 11.561257,10.938828 8.2427841,12.677317 2.3253386,15.254992 l 0.6948516,1.501776 C 10.349753,13.484241 13.892372,10.490537 15.05793,4.6851645 Z M 19.563257,2.5109516 15.662005,20.5 H 17.5 L 21.401252,2.5109516 Z"
       style="font-style:italic;font-variant:normal;font-weight:normal;font-stretch:normal;font-size:22.41456604px;font-family:'Droid Sans';-inkscape-font-specification:'Droid Sans';fill:url(#radialGradient901);fill-opacity:1;stroke:#000000;stroke-opacity:0.6"
       id="path1072"
       inkscape:connector-curvature="0"
       sodipodi:nodetypes="cccccccccccc" />
    <path
       style="font-style:italic;font-variant:normal;font-weight:normal;font-stretch:normal;font-size:22.41456604px;font-family:'Droid Sans';-inkscape-font-specification:'Droid Sans';fill:#ffffff;fill-opacity:1;stroke:none;stroke-opacity:0.6;opacity:0.2"
       d="M 19.5625 2.5117188 L 15.662109 20.5 L 15.988281 20.5 L 19.5625 4.0117188 L 21.074219 4.0117188 L 21.400391 2.5117188 L 19.5625 2.5117188 z M 5.6445312 4.6855469 L 5.3515625 6.1640625 L 12.90625 6.1640625 C 12.904127 6.1716002 12.900571 6.1780243 12.898438 6.1855469 L 14.673828 6.1855469 C 14.819063 5.7044712 14.953241 5.210283 15.058594 4.6855469 L 5.6445312 4.6855469 z M 12.371094 7.6640625 C 10.775955 11.336483 7.5764958 12.968787 2.3261719 15.255859 L 2.9003906 16.5 C 8.4443413 14.06159 11.607388 12.275024 12.90625 7.6640625 L 12.371094 7.6640625 z "
       id="path1075" />
  </g>
</svg>
